src/lock-open.svg

<svg width="24" height="24" viewBox="0 0 24 24" xmlns="http://www.w3.org/2000/svg" xmlns:xlink="http://www.w3.org/1999/xlink">
  <path d="M18 8h-1V6c0-2.76-2.24-5-5-5S7 3.24 7 6h1.9c0-1.71 1.39-3.1 3.1-3.1 1.71 0 3.1 1.39 3.1 3.1v2H6c-1.1 0-2 .9-2 2v10c0 1.1.9 2 2 2h12c1.1 0 2-.9 2-2V10c0-1.1-.9-2-2-2zm0 12H6V10h12v10zm-3.876-6.233H9.473l2.319 3.938 2.332-3.938z" fill="currentColor"/>
</svg>

<svg width="24" height="24" viewBox="0 0 24 24" xmlns="http://www.w3.org/2000/svg">
<path fill-rule="evenodd" clip-rule="evenodd" d="M18 8H17V6C17 3.24 14.76 1 12 1C9.24 1 7 3.24 7 6H8.9C8.9 4.29 10.29 2.9 12 2.9C13.71 2.9 15.1 4.29 15.1 6V8H6C4.9 8 4 8.9 4 10V20C4 21.1 4.9 22 6 22H18C19.1 22 20 21.1 20 20V10C20 8.9 19.1 8 18 8V8ZM18 20H6V10H18V20V20ZM14.1237 13.7668H9.47255L11.7915 17.7053L14.1237 13.7668Z" fill="currentColor"/>
</svg>
